X:6036
T:Sigi's Jig
O:england
C:Chelcy Bowles
N:Contact Chelcy Bowles at cb3@mail.dcs.wisc.edu for permissions
R:jig
M:6/8
K:DMix
D2d dcA|GFG AGE|Ddc AGF|GFG A3|D2d dcA|GFG ABc|dAF dAF|AGE D3:|
|:d2A AGF|GFG ABc|dAA AFA|AGE D3|d2A AGF|GAB cde|dAF dAF|AGE D3:|


